assets/hicursor.svg

<svg height="60" viewBox="39 50 261 256" width="64" xmlns="http://www.w3.org/2000/svg"><path d="m144.890316 70.932112c14.830729 26.1979166 17.164062 54.046224 7 83.544922-13.871094 39.541015-4.657227 55.397461-1.936524 66.424805 2.720704 11.027343 0 17.504882-8.701171 19.910156-8.701172 2.405273-18.157227-3.686524-20.665039-12.577149-6.1875-19.264323-7.856771-38.540364-5.007813-57.828125l-44.1943359 5.285157c-6.0078125 13.269531-3.093099 32.765299 8.7441406 58.487304 4.0917969 6.632813 2.3896484 17.167969-8.7441406 20.389649-7.4225261 2.147786-13.6217448-1.391276-18.5976563-10.617188-15.9316406-35.192708-18.0566406-64.429134-6.375-87.709278 15.7548828-40.423534-1.5361328-63.6901359-4.484375-69.0416984-4.3574218-7.40625-4.0478515-14.6259765 4.484375-19.6748046 8.5322266-5.0488282 14.7363282 0 20.28125 5.7998046 15.9583334 17.9029948 19.9072266 43.5680334 11.8466797 76.9951174l42.0468755-5.757813c10.779947-24.289713 9.110677-45.9163408-5.007813-64.8798825-3.579102-3.6621094-6.086914-15.1083984 5.007813-20.0830078 7.396484-3.3164062 15.497395.4609375 24.302734 11.3320313zm64.663086 37.737088c2.100586 5.653321 4.419896 24.121685-10.645448 51.586529-12.36201 23.722656-5.117187 34.852539-1.853515 44.583007 3.263671 9.730469 1.960844 17.804988-6.260743 20.807618-8.221586 3.002629-14.987304.113054-19.315429-7.402571s-15.961914-36.662859-1.714844-63.273211c12.71582-24.569336 15.332948-30.426372 12.96576-38.363872-2.367187-7.9375-.014648-16.370117 10.225586-18.749023 10.240234-2.3789063 14.498047 5.158203 16.598633 10.811523zm41.328029 91.208978c3.749637 6.645158 2.585033 17.435465-6.653026 21.722774-9.23806 4.28731-18.173349.714603-21.705465-6.640755-3.532116-7.355359-1.419583-17.629558 6.414466-21.028298 7.834048-3.398741 18.194387-.698878 21.944025 5.946279zm-1.299586-142.21021c4.841845 7.1954026 18.480503 35.4601031 6.124382 62.999459-10.970975 25.396497-13.173161 31.421827-10.258047 39.174865 2.915113 7.753038 1.156534 16.329218-8.892812 19.416652-10.049345 3.087434-14.822548-4.134305-17.312373-9.627325-2.489824-5.493019-6.091773-23.754609 7.021022-52.203455 10.677088-24.5271989 2.673532-35.1245966-1.260953-44.6037002-3.934485-9.4791035-3.198081-17.624834 4.794025-21.1936581 7.992107-3.5688242 14.94291-1.1582402 19.784756 6.0371623zm-51.867126 6.2046775c3.010428 7.583829.186349 17.6856377-7.8657 20.5296235-8.05205 2.8439858-18.198818-.5720006-21.475779-7.4625326-3.276961-6.8905321-1.3625-17.5733158 8.152124-21.2057668 9.514623-3.6324511 18.178927.5548469 21.189355 8.1386759z"/></svg>

<?xml version="1.0" encoding="UTF-8"?>
<svg width="64px" height="60px" viewBox="39 50 261 256" version="1.1" xmlns="http://www.w3.org/2000/svg" xmlns:xlink="http://www.w3.org/1999/xlink">
  <path fill="#000000" d="M144.890316,70.932112 C159.721045,97.1300286 162.054378,124.978336 151.890316,154.477034 C138.019222,194.018049 147.233089,209.874495 149.953792,220.901839 C152.674496,231.929182 149.953792,238.406721 141.252621,240.811995 C132.551449,243.217268 123.095394,237.125471 120.587582,228.234846 C114.400082,208.970523 112.730811,189.694482 115.579769,170.406721 L71.3854331,175.691878 C65.3776206,188.961409 68.2923341,208.457177 80.1295737,234.179182 C84.2213706,240.811995 82.5192221,251.347151 71.3854331,254.568831 C63.962907,256.716617 57.7636883,253.177555 52.7877768,243.951643 C36.8561362,208.758935 34.7311362,179.522509 46.4127768,156.242365 C62.1676596,115.818831 44.876644,92.5522291 41.9284018,87.2006666 C37.57098,79.7944166 37.8805503,72.5746901 46.4127768,67.525862 C54.9450034,62.4770338 61.149105,67.525862 66.6940268,73.3256666 C82.6523602,91.2286614 86.6012534,116.8937 78.5407065,150.320784 L120.587582,144.562971 C131.367529,120.273258 129.698259,98.6466302 115.579769,79.6830885 C112.000667,76.0209791 109.492855,64.5746901 120.587582,59.6000807 C127.984066,56.2836745 136.084977,60.0610182 144.890316,70.932112 Z M209.553402,108.6692 C211.653988,114.322521 213.973298,132.790885 198.907954,160.255729 C186.545944,183.978385 193.790767,195.108268 197.054439,204.838736 C200.31811,214.569205 199.015283,222.643724 190.793696,225.646354 C182.57211,228.648983 175.806392,225.759408 171.478267,218.243783 C167.150142,210.728158 155.516353,181.580924 169.763423,154.970572 C182.479243,130.401236 185.096371,124.5442 182.729183,116.6067 C180.361996,108.6692 182.714535,100.236583 192.954769,97.857677 C203.195003,95.4787707 207.452816,103.01588 209.553402,108.6692 Z M250.881431,199.878178 C254.631068,206.523336 253.466464,217.313643 244.228405,221.600952 C234.990345,225.888262 226.055056,222.315555 222.52294,214.960197 C218.990824,207.604838 221.103357,197.330639 228.937406,193.931899 C236.771454,190.533158 247.131793,193.233021 250.881431,199.878178 Z M249.581845,57.667968 C254.42369,64.8633706 268.062348,93.1280711 255.706227,120.667427 C244.735252,146.063924 242.533066,152.089254 245.44818,159.842292 C248.363293,167.59533 246.604714,176.17151 236.555368,179.258944 C226.506023,182.346378 221.73282,175.124639 219.242995,169.631619 C216.753171,164.1386 213.151222,145.87701 226.264017,117.428164 C236.941105,92.9009651 228.937549,82.3035674 225.003064,72.8244638 C221.068579,63.3453603 221.804983,55.1996298 229.797089,51.6308057 C237.789196,48.0619815 244.739999,50.4725655 249.581845,57.667968 Z M197.714719,63.8726455 C200.725147,71.4564745 197.901068,81.5582832 189.849019,84.402269 C181.796969,87.2462548 171.650201,83.8302684 168.37324,76.9397364 C165.096279,70.0492043 167.01074,59.3664206 176.525364,55.7339696 C186.039987,52.1015185 194.704291,56.2888165 197.714719,63.8726455 Z"></path>
</svg>
